X: 1018
T: Hunsdou House
%R: jig
B: Henry Playford "Apollo's Banquet", London 1687 (5th Edition)
F: https://archive.org/details/apollosbanquetco01rugg
Z: 2017 John Chambers <jc:trillian.mit.edu>
M: 6/4
L: 1/4
K: D
% - - - - - - - - - -
|:\
D2A F2B | AF2 E2D |\
d>ef ec2 | B3 A3 ::\
a2g fc2 | d2c B2e/f/ |
g>ag/f/ ec2 | B3 ABc |\
d2c BF2 |G2F EAB |\
cde A2f | e3 d3 |]
% - - - - - - - - - -

%%sep 1 1 500
%%sep 1 1 500

